app/dist/common/images/saudi-company-for-hardware.svg

<svg height="18" viewBox="0 0 18 18" width="18" xmlns="http://www.w3.org/2000/svg"><path d="m0 0h18v18h-18z" fill="#f0f3fa"/><path d="m9 3a6 6 0 1 1 0 12 6 6 0 0 1 0-12z" fill="#0f6cb5"/><path d="m9 4a5 5 0 1 1 0 10 5 5 0 0 1 0-10z" fill="#aac52a"/><path d="m11.71 7.6-2.09-2-.62-.6-.62.6-2.1 2-.28.27v4.13h6v-4.13z" fill="#f0f3fa"/><path d="m7 8.34 2-1.84 2 1.84v2.66h-4z" fill="#e31119"/></svg>

<!-- by TradingView --><svg width="18" height="18" viewBox="0 0 18 18" xmlns="http://www.w3.org/2000/svg"><path fill="#F0F3FA" d="M0 0h18v18H0z"/><path d="M9 3a6 6 0 1 1 0 12A6 6 0 0 1 9 3Z" fill="#0F6CB5"/><path d="M9 4a5 5 0 1 1 0 10A5 5 0 0 1 9 4Z" fill="#AAC52A"/><path d="m11.71 7.6-2.09-2L9 5l-.62.6-2.1 2-.28.27V12h6V7.87l-.29-.27Z" fill="#F0F3FA"/><path d="M7 8.34 9 6.5l2 1.84V11H7V8.34Z" fill="#E31119"/></svg>
